public/icons/stratagems/Bridge/Orbital Precision Strike.svg

<svg id="base" xmlns="http://www.w3.org/2000/svg" xmlns:xlink="http://www.w3.org/1999/xlink" viewBox="0 0 126 126">
  <defs>
    <style>
      .cls-1 {
        fill: #de7b6c;
      }

      .cls-1, .cls-2 {
        fill-rule: evenodd;
      }

      .cls-2 {
        fill: #fff;
      }
    </style>
  </defs>
  <path id="base-2" data-name="base" class="cls-1" d="M94.47,93h15.288A53.738,53.738,0,0,1,117,120H98.924C98.595,108.98,96.92,100.12,94.47,93ZM74.191,67.2A53.991,53.991,0,0,1,107.9,90H93.357C88.144,77.027,80.311,70.472,74.191,67.2ZM90.327,90H65V67C78.307,70.34,85.946,79.73,90.327,90ZM35.5,93H62v27H30.912A85.548,85.548,0,0,1,35.5,93ZM62,67V90H36.681C41.065,79.73,48.7,70.343,62,67ZM33.635,90H18.1A53.974,53.974,0,0,1,53.38,66.9C47.181,70.059,39.013,76.6,33.635,90Zm-5.559,30H9a53.732,53.732,0,0,1,7.242-27H32.523C30.077,100.12,28.4,108.98,28.076,120Zm67.569,43a53.939,53.939,0,0,1-65.289,0H95.644ZM91.509,93a85.481,85.481,0,0,1,4.58,27H65V93H91.509Z"/>
  <path class="cls-2" d="M54,39V11H29L47,39h7Z"/>
  <path class="cls-2" d="M73,11H98L80,39H73V11Z"/>
  <path class="cls-2" d="M59,11h9V44h9L64,64,50,44h9"/>
</svg>

<svg xmlns="http://www.w3.org/2000/svg" viewBox="0 0 126 126" fill="#fff">
	<path fill="#de7b6c" d="M94.5 93h15.3a53.7 53.7 0 0 1 7.2 27H99c-.4-11-2-19.9-4.5-27ZM74.2 67.2A54 54 0 0 1 107.9 90H93.4c-5.3-13-13-19.5-19.2-22.8ZM90.3 90H65V67a37 37 0 0 1 25.3 23Zm-54.8 3H62v27H31a85.5 85.5 0 0 1 4.5-27ZM62 67v23H36.7A37 37 0 0 1 62 67ZM33.6 90H18.1a54 54 0 0 1 35.3-23.1A42.4 42.4 0 0 0 33.6 90Zm-5.5 30H9a53.7 53.7 0 0 1 7.2-27h16.3c-2.4 7.1-4.1 16-4.4 27Zm67.5 43a54 54 0 0 1-65.2 0h65.2Zm-4-70a85.5 85.5 0 0 1 4.5 27H65V93h26.5Z"/>
	<path d="M54 39V11H29l18 28h7ZM73 11h25L80 39h-7V11Z"/>
	<path d="M59 11h9v33h9L64 64 50 44h9"/>
</svg>
